images/symbol-defs.svg

<svg aria-hidden="true" style="position: absolute; width: 0; height: 0; overflow: hidden;" version="1.1" xmlns="http://www.w3.org/2000/svg" xmlns:xlink="http://www.w3.org/1999/xlink">
<defs>
<symbol id="icon-mail" viewBox="0 0 32 32">
<path d="M29 4h-26c-1.654 0-3 1.346-3 3v18c0 1.654 1.346 3 3 3h26c1.654 0 3-1.346 3-3v-18c0-1.654-1.346-3-3-3zM29 6c0.136 0 0.265 0.028 0.383 0.077l-13.383 11.599-13.383-11.599c0.118-0.049 0.247-0.077 0.383-0.077h26zM29 26h-26c-0.552 0-1-0.448-1-1v-16.81l13.345 11.565c0.188 0.163 0.422 0.244 0.655 0.244s0.467-0.081 0.655-0.244l13.345-11.565v16.81c0 0.552-0.448 1-1 1z"></path>
</symbol>
<symbol id="icon-facebook" viewBox="0 0 32 32">
<path d="M21.329 5.313h2.921v-5.088c-0.504-0.069-2.237-0.225-4.256-0.225-4.212 0-7.097 2.649-7.097 7.519v4.481h-4.648v5.688h4.648v14.312h5.699v-14.311h4.46l0.708-5.688h-5.169v-3.919c0.001-1.644 0.444-2.769 2.735-2.769z"></path>
</symbol>
<symbol id="icon-instagram" viewBox="0 0 32 32">
<path d="M31.969 9.408c-0.075-1.7-0.35-2.869-0.744-3.882-0.406-1.075-1.032-2.038-1.851-2.838-0.8-0.813-1.769-1.444-2.832-1.844-1.019-0.394-2.182-0.669-3.882-0.744-1.713-0.081-2.257-0.1-6.601-0.1s-4.888 0.019-6.595 0.094c-1.7 0.075-2.869 0.35-3.882 0.744-1.075 0.406-2.038 1.031-2.838 1.85-0.813 0.8-1.444 1.769-1.844 2.832-0.394 1.019-0.669 2.182-0.744 3.882-0.081 1.713-0.1 2.257-0.1 6.601s0.019 4.888 0.094 6.595c0.075 1.7 0.35 2.869 0.744 3.882 0.406 1.075 1.038 2.038 1.85 2.838 0.8 0.813 1.769 1.444 2.832 1.844 1.019 0.394 2.182 0.669 3.882 0.744 1.706 0.075 2.25 0.094 6.595 0.094s4.888-0.019 6.595-0.094c1.7-0.075 2.869-0.35 3.882-0.744 2.151-0.832 3.851-2.532 4.682-4.682 0.394-1.019 0.669-2.182 0.744-3.882 0.075-1.707 0.094-2.251 0.094-6.595s-0.006-4.888-0.081-6.595zM29.087 22.473c-0.069 1.563-0.331 2.407-0.55 2.969-0.538 1.394-1.644 2.5-3.038 3.038-0.563 0.219-1.413 0.481-2.969 0.55-1.688 0.075-2.194 0.094-6.464 0.094s-4.782-0.019-6.464-0.094c-1.563-0.069-2.407-0.331-2.969-0.55-0.694-0.256-1.325-0.663-1.838-1.194-0.531-0.519-0.938-1.144-1.194-1.838-0.219-0.563-0.481-1.413-0.55-2.969-0.075-1.688-0.094-2.194-0.094-6.464s0.019-4.782 0.094-6.464c0.069-1.563 0.331-2.407 0.55-2.969 0.256-0.694 0.663-1.325 1.2-1.838 0.519-0.531 1.144-0.938 1.838-1.194 0.563-0.219 1.413-0.481 2.969-0.55 1.688-0.075 2.194-0.094 6.464-0.094 4.276 0 4.782 0.019 6.464 0.094 1.563 0.069 2.407 0.331 2.969 0.55 0.694 0.256 1.325 0.662 1.838 1.194 0.531 0.519 0.938 1.144 1.194 1.838 0.219 0.563 0.481 1.413 0.55 2.969 0.075 1.688 0.094 2.194 0.094 6.464s-0.019 4.77-0.094 6.458z"></path>
<path d="M16.059 7.783c-4.538 0-8.22 3.682-8.22 8.22s3.682 8.22 8.22 8.22c4.539 0 8.22-3.682 8.22-8.22s-3.682-8.22-8.22-8.22zM16.059 21.335c-2.944 0-5.332-2.388-5.332-5.332s2.388-5.332 5.332-5.332c2.944 0 5.332 2.388 5.332 5.332s-2.388 5.332-5.332 5.332z"></path>
<path d="M26.524 7.458c0 1.060-0.859 1.919-1.919 1.919s-1.919-0.859-1.919-1.919c0-1.060 0.859-1.919 1.919-1.919s1.919 0.859 1.919 1.919z"></path>
</symbol>
<symbol id="icon-linkedin" viewBox="0 0 32 32">
<path d="M31.992 32v-0.001h0.008v-11.736c0-5.741-1.236-10.164-7.948-10.164-3.227 0-5.392 1.771-6.276 3.449h-0.093v-2.913h-6.364v21.364h6.627v-10.579c0-2.785 0.528-5.479 3.977-5.479 3.399 0 3.449 3.179 3.449 5.657v10.401h6.62z"></path>
<path d="M0.528 10.636h6.635v21.364h-6.635v-21.364z"></path>
<path d="M3.843 0c-2.121 0-3.843 1.721-3.843 3.843s1.721 3.879 3.843 3.879c2.121 0 3.843-1.757 3.843-3.879-0.001-2.121-1.723-3.843-3.843-3.843v0z"></path>
</symbol>
<symbol id="icon-twitter" viewBox="0 0 32 32">
<path d="M32 6.078c-1.19 0.522-2.458 0.868-3.78 1.036 1.36-0.812 2.398-2.088 2.886-3.626-1.268 0.756-2.668 1.29-4.16 1.588-1.204-1.282-2.92-2.076-4.792-2.076-3.632 0-6.556 2.948-6.556 6.562 0 0.52 0.044 1.020 0.152 1.496-5.454-0.266-10.28-2.88-13.522-6.862-0.566 0.982-0.898 2.106-0.898 3.316 0 2.272 1.17 4.286 2.914 5.452-1.054-0.020-2.088-0.326-2.964-0.808 0 0.020 0 0.046 0 0.072 0 3.188 2.274 5.836 5.256 6.446-0.534 0.146-1.116 0.216-1.72 0.216-0.42 0-0.844-0.024-1.242-0.112 0.85 2.598 3.262 4.508 6.13 4.57-2.232 1.746-5.066 2.798-8.134 2.798-0.538 0-1.054-0.024-1.57-0.090 2.906 1.874 6.35 2.944 10.064 2.944 12.072 0 18.672-10 18.672-18.668 0-0.29-0.010-0.57-0.024-0.848 1.302-0.924 2.396-2.078 3.288-3.406z"></path>
</symbol>
<symbol id="icon-tel" viewBox="0 0 32 32">
<path d="M23 0h-14c-1.654 0-3 1.346-3 3v26c0 1.654 1.346 3 3 3h14c1.654 0 3-1.346 3-3v-26c0-1.654-1.346-3-3-3zM9 2h14c0.552 0 1 0.448 1 1v21h-16v-21c0-0.552 0.448-1 1-1zM23 30h-14c-0.552 0-1-0.448-1-1v-3h16v3c0 0.552-0.448 1-1 1z"></path>
</symbol>
</defs>
</svg>

<svg aria-hidden="true" xmlns="http://www.w3.org/2000/svg">
  <defs>
    <symbol id="icon-instagram" viewBox="0 0 32 32">
      <path d="M31.97 9.4a11.7 11.7 0 0 0-.74-3.87 7.8 7.8 0 0 0-1.86-2.84A7.87 7.87 0 0 0 26.54.84C25.52.45 24.36.17 22.66.1 20.95.02 20.4 0 16.06 0s-4.89.02-6.6.1C7.76.16 6.6.43 5.58.83a7.8 7.8 0 0 0-2.84 1.85A7.87 7.87 0 0 0 .9 5.52C.5 6.54.23 7.7.16 9.4c-.08 1.71-.1 2.26-.1 6.6s.02 4.9.09 6.6c.08 1.7.35 2.87.74 3.88a7.9 7.9 0 0 0 1.85 2.84c.8.81 1.77 1.44 2.84 1.84 1.02.4 2.18.67 3.88.75 1.7.07 2.25.09 6.6.09s4.88-.02 6.59-.1a11.7 11.7 0 0 0 3.88-.74 8.18 8.18 0 0 0 4.68-4.68c.4-1.02.67-2.18.75-3.88.07-1.7.09-2.25.09-6.6s0-4.89-.08-6.6zm-2.88 13.07a8.76 8.76 0 0 1-.55 2.97 5.31 5.31 0 0 1-3.04 3.04c-.56.22-1.41.48-2.97.55-1.69.07-2.2.1-6.46.1s-4.79-.02-6.47-.1a8.76 8.76 0 0 1-2.97-.55 4.93 4.93 0 0 1-1.84-1.2 4.97 4.97 0 0 1-1.19-1.83 8.81 8.81 0 0 1-.55-2.97c-.07-1.69-.1-2.2-.1-6.47s.03-4.78.1-6.46c.07-1.56.33-2.4.55-2.97.26-.7.66-1.32 1.2-1.84a4.97 4.97 0 0 1 1.84-1.19A8.81 8.81 0 0 1 9.6 3c1.69-.07 2.2-.1 6.46-.1 4.28 0 4.78.03 6.47.1 1.56.07 2.4.33 2.96.55.7.26 1.33.66 1.84 1.2.53.51.94 1.14 1.2 1.83.22.57.48 1.42.55 2.97.07 1.69.1 2.2.1 6.46s-.03 4.77-.1 6.46z"/>
      <path d="M16.06 7.78a8.22 8.22 0 1 0 0 16.45 8.22 8.22 0 0 0 0-16.45zm0 13.55a5.33 5.33 0 1 1 0-10.66 5.33 5.33 0 0 1 0 10.67zM26.52 7.46a1.92 1.92 0 1 1-3.83 0 1.92 1.92 0 0 1 3.83 0z"/>
    </symbol>
    <symbol id="icon-twitter" viewBox="0 0 32 32">
      <path d="M32 6.08c-1.19.52-2.46.87-3.78 1.03a6.52 6.52 0 0 0 2.89-3.62 13.11 13.11 0 0 1-4.16 1.59 6.57 6.57 0 0 0-11.2 5.98A18.57 18.57 0 0 1 2.23 4.2a6.57 6.57 0 0 0 2.02 8.77 6.48 6.48 0 0 1-2.97-.81v.07a6.59 6.59 0 0 0 5.26 6.44 6.55 6.55 0 0 1-2.97.1 6.62 6.62 0 0 0 6.13 4.58 13.18 13.18 0 0 1-9.7 2.7A18.47 18.47 0 0 0 10.06 29c12.08 0 18.68-10 18.68-18.67 0-.29-.01-.57-.03-.85 1.3-.92 2.4-2.07 3.29-3.4z"/>
    </symbol>
    <symbol id="icon-facebook" viewBox="0 0 32 32">
      <path d="M21.33 5.31h2.92V.23C23.75.15 22.01 0 19.99 0c-4.2 0-7.1 2.65-7.1 7.52V12H8.26v5.69h4.65V32h5.7V17.69h4.46l.7-5.69H18.6V8.08c0-1.64.45-2.77 2.74-2.77z"/>
    </symbol>
    <symbol id="icon-linkedin" viewBox="0 0 32 32">
      <path d="M32 32V20.26c0-5.74-1.24-10.16-7.95-10.16-3.23 0-5.39 1.77-6.27 3.45h-.1v-2.92h-6.36V32h6.63V21.42c0-2.79.52-5.48 3.97-5.48 3.4 0 3.45 3.18 3.45 5.66V32H32zM.53 10.64h6.63V32H.53V10.64zM3.84 0C1.72 0 0 1.72 0 3.84s1.72 3.88 3.84 3.88A3.88 3.88 0 0 0 7.7 3.84 3.85 3.85 0 0 0 3.84 0z"/>
    </symbol>
    <symbol id="icon-mail" viewBox="0 0 32 32">
      <path d="M29 4H3a3 3 0 0 0-3 3v18a3 3 0 0 0 3 3h26a3 3 0 0 0 3-3V7a3 3 0 0 0-3-3zm0 2a1 1 0 0 1 .38.08L16 17.68 2.62 6.08A1 1 0 0 1 3 6h26zm0 20H3a1 1 0 0 1-1-1V8.19l13.35 11.57a1 1 0 0 0 1.3 0L30 8.19V25a1 1 0 0 1-1 1z"/>
    </symbol>
    <symbol id="icon-tel" viewBox="0 0 32 32">
      <path d="M23 0H9a3 3 0 0 0-3 3v26a3 3 0 0 0 3 3h14a3 3 0 0 0 3-3V3a3 3 0 0 0-3-3zM9 2h14a1 1 0 0 1 1 1v21H8V3a1 1 0 0 1 1-1zm14 28H9a1 1 0 0 1-1-1v-3h16v3a1 1 0 0 1-1 1z"/>
    </symbol>
  </defs>
</svg>
